@themes/theme-zeno/src/img/logo-zeno.svg

<svg
  width="107"
  height="40"
  viewBox="0 0 107 40"
  fill="none"
  xmlns="http://www.w3.org/2000/svg"
>
  <path
    d="M40.6885 9.06274H56.3455V12.6546L45.6619 26.1933H56.8367V30.0001H40.1666V26.4389L50.8195 12.8695H40.6885V9.06274Z"
    fill="#1D0A47"
  />
  <path
    d="M65.5598 14.8036C66.7673 14.8036 67.8316 15.0185 68.7526 15.4483C69.6941 15.8577 70.482 16.4205 71.1165 17.1368C71.751 17.8327 72.2319 18.6514 72.5594 19.5928C72.8869 20.5343 73.0506 21.5167 73.0506 22.54C73.0506 22.7038 73.0506 22.8777 73.0506 23.0619C73.0506 23.2461 73.0302 23.4406 72.9892 23.6452H62.06C62.06 24.1569 62.1623 24.6379 62.367 25.0881C62.5717 25.5384 62.8377 25.9375 63.1652 26.2854C63.5131 26.6334 63.9122 26.9097 64.3625 27.1143C64.8332 27.319 65.3347 27.4213 65.8668 27.4213C66.5422 27.4213 67.1153 27.2883 67.586 27.0222C68.0772 26.7357 68.4865 26.3571 68.814 25.8863H72.8357C72.5901 26.5003 72.2729 27.0939 71.884 27.6669C71.4951 28.2195 71.0142 28.7107 70.4411 29.1405C69.868 29.5703 69.1926 29.908 68.4149 30.1536C67.6576 30.3992 66.798 30.522 65.8361 30.522C64.7309 30.522 63.6973 30.3378 62.7354 29.9694C61.7939 29.5806 60.965 29.0382 60.2487 28.3423C59.5528 27.626 59.0002 26.7869 58.5909 25.8249C58.202 24.8425 58.0076 23.7476 58.0076 22.54C58.0076 21.4962 58.1713 20.5036 58.4988 19.5621C58.8467 18.6207 59.3379 17.802 59.9724 17.1061C60.6273 16.3898 61.4153 15.827 62.3363 15.4176C63.2778 15.0083 64.3523 14.8036 65.5598 14.8036ZM65.5291 17.6894C65.0174 17.6894 64.5569 17.7815 64.1476 17.9657C63.7383 18.1295 63.3903 18.3546 63.1038 18.6411C62.8173 18.9277 62.5819 19.2654 62.3977 19.6542C62.234 20.0226 62.1316 20.4115 62.0907 20.8208H68.9675C68.8652 19.9612 68.507 19.2244 67.893 18.6104C67.2995 17.9964 66.5115 17.6894 65.5291 17.6894Z"
    fill="#1D0A47"
  />
  <path
    d="M75.038 15.2948H79.1211V17.1368H79.2439C79.7555 16.3182 80.39 15.7349 81.1473 15.3869C81.925 15.0185 82.7437 14.8343 83.6033 14.8343C85.2611 14.8343 86.6119 15.3972 87.6557 16.5228C88.6995 17.628 89.2214 19.3063 89.2214 21.5576V30.0001H85.0769V21.8339C85.0769 20.7287 84.8313 19.8998 84.3401 19.3472C83.8489 18.7742 83.1735 18.4876 82.3139 18.4876C81.3929 18.4876 80.6356 18.8049 80.0421 19.4393C79.469 20.0738 79.1825 21.005 79.1825 22.233V30.0001H75.038V15.2948Z"
    fill="#1D0A47"
  />
  <path
    d="M90.9729 22.6321C90.9729 21.5065 91.1674 20.4627 91.5562 19.5007C91.9656 18.5388 92.5182 17.7099 93.214 17.014C93.9304 16.3182 94.7593 15.7758 95.7007 15.3869C96.6627 14.9981 97.7065 14.8036 98.8321 14.8036C99.9987 14.8036 101.063 15.0083 102.025 15.4176C102.987 15.8065 103.806 16.3489 104.481 17.0447C105.177 17.7406 105.719 18.5695 106.108 19.5314C106.497 20.4934 106.691 21.5269 106.691 22.6321C106.691 23.7169 106.497 24.7402 106.108 25.7021C105.719 26.6436 105.177 27.4725 104.481 28.1888C103.785 28.9052 102.956 29.4782 101.994 29.908C101.032 30.3174 99.9783 30.522 98.8321 30.522C97.7065 30.522 96.6627 30.3174 95.7007 29.908C94.7388 29.4987 93.9099 28.9461 93.214 28.2502C92.5182 27.5339 91.9656 26.6948 91.5562 25.7328C91.1674 24.7709 90.9729 23.7373 90.9729 22.6321ZM95.1481 22.6628C95.1481 23.2768 95.2402 23.8397 95.4244 24.3513C95.6086 24.863 95.8645 25.303 96.1919 25.6714C96.5399 26.0398 96.9287 26.3264 97.3585 26.531C97.8088 26.7357 98.3 26.838 98.8321 26.838C99.9578 26.838 100.848 26.4389 101.503 25.6407C102.158 24.8425 102.485 23.8499 102.485 22.6628C102.485 22.0898 102.404 21.5576 102.24 21.0664C102.076 20.5548 101.841 20.1147 101.534 19.7463C101.227 19.3575 100.838 19.0505 100.367 18.8253C99.9169 18.6002 99.4052 18.4876 98.8321 18.4876C97.6655 18.4876 96.7548 18.8867 96.0998 19.6849C95.4654 20.4627 95.1481 21.4553 95.1481 22.6628Z"
    fill="#1D0A47"
  />
  <path
    fill-rule="evenodd"
    clip-rule="evenodd"
    d="M1.15769 20.4322L20.5071 20.4318L25.2121 6.12168L4.56934 6.1539L7.96748 12.8678L1.15769 20.4322Z"
    fill="#6515DD"
  />
  <path
    fill-rule="evenodd"
    clip-rule="evenodd"
    d="M32.154 19.5678L12.8046 19.5682L8.09967 33.8783L28.7424 33.8461L25.3443 27.1322L32.154 19.5678Z"
    fill="#6515DD"
  />
</svg>

<svg width="107" height="40" xmlns="http://www.w3.org/2000/svg"><path d="M40.688 9.063h15.657v3.592L45.663 26.193h11.175V30h-16.67V26.44l10.652-13.57H40.69V9.064zM65.56 14.804c1.207 0 2.272.214 3.193.644.941.41 1.729.973 2.364 1.689a7.023 7.023 0 011.442 2.456c.328.941.492 1.924.492 2.947v.522c0 .184-.02.379-.062.583H62.06c0 .512.102.993.307 1.443.205.45.47.85.798 1.197.348.348.747.625 1.197.83.471.204.973.306 1.505.306.675 0 1.248-.133 1.719-.399a3.83 3.83 0 001.228-1.136h4.022a9.351 9.351 0 01-.952 1.78 6.557 6.557 0 01-1.443 1.474c-.573.43-1.248.768-2.026 1.014-.757.245-1.617.368-2.579.368a8.596 8.596 0 01-3.1-.553 7.812 7.812 0 01-2.487-1.627 8.156 8.156 0 01-1.658-2.517c-.389-.982-.583-2.077-.583-3.285 0-1.044.163-2.036.49-2.978.349-.941.84-1.76 1.474-2.456a7.031 7.031 0 012.364-1.688c.942-.41 2.016-.614 3.224-.614zm-.03 2.885a3.33 3.33 0 00-1.382.277c-.41.163-.758.389-1.044.675a3.596 3.596 0 00-.706 1.013 3.78 3.78 0 00-.307 1.167h6.877a3.654 3.654 0 00-1.075-2.21c-.594-.615-1.382-.922-2.364-.922zM75.038 15.295h4.083v1.842h.123c.511-.819 1.146-1.402 1.903-1.75a5.668 5.668 0 012.456-.553c1.658 0 3.009.563 4.053 1.689 1.043 1.105 1.565 2.783 1.565 5.035V30h-4.144v-8.166c0-1.105-.246-1.934-.737-2.487-.491-.573-1.166-.86-2.026-.86-.921 0-1.678.318-2.272.952-.573.635-.86 1.566-.86 2.794V30h-4.144V15.295zM90.973 22.632c0-1.126.194-2.17.583-3.131.41-.962.962-1.791 1.658-2.487a7.818 7.818 0 012.487-1.627c.962-.389 2.006-.583 3.131-.583 1.167 0 2.231.204 3.193.614a7.058 7.058 0 012.456 1.627 7.387 7.387 0 011.627 2.486c.389.962.583 1.996.583 3.101a8.11 8.11 0 01-.583 3.07 7.813 7.813 0 01-1.627 2.487 7.944 7.944 0 01-2.487 1.719c-.962.41-2.016.614-3.162.614-1.125 0-2.17-.205-3.131-.614a7.783 7.783 0 01-2.487-1.658 8.16 8.16 0 01-1.658-2.517 8.196 8.196 0 01-.583-3.1zm4.175.03c0 .615.092 1.178.276 1.69.185.511.44.951.768 1.32.348.368.737.654 1.167.859.45.205.941.307 1.473.307 1.126 0 2.016-.4 2.671-1.197.655-.798.982-1.791.982-2.978 0-.573-.081-1.105-.245-1.597a3.891 3.891 0 00-.706-1.32 3.245 3.245 0 00-1.167-.92c-.45-.226-.962-.338-1.535-.338-1.166 0-2.077.399-2.732 1.197-.635.778-.952 1.77-.952 2.978z" fill="#1D0A47"/><path fill-rule="evenodd" clip-rule="evenodd" d="M1.158 20.432h19.35l4.704-14.31-20.643.032 3.398 6.714-6.81 7.564z" fill="#6515DD"/><path fill-rule="evenodd" clip-rule="evenodd" d="M32.154 19.568h-19.35L8.1 33.878l20.642-.032-3.398-6.714 6.81-7.564z" fill="#6515DD"/></svg>
